X:1
T:Pastime of Ned the Blind Harper, The
T:Dyfyrwch Ieuan Delynor Dall
M:2/4
L:1/8
R:Air
N:”Slow”
B:Edward Jones – Musical, Poetical and Historical Relicks of the Welsh Bards, vol. 2 (1802, p. 104)
Z:AK/Fiddler’s Companion
K:C
"Slow"G|c>B/2A/4 GF|EFGE|(D>E)FD|ECCD|(E>F)GE|
FGAB|c2TB2|c3::c/d/|ec c/d/e/c/|dB B/c/d/B/|
cA A/B/c/A/|BG G/A/B/G/|AF F/G/A/F/|GE E/F/G/E/|
(D>E)FD|ECCD|E>FGE|FGAB|c2 TB>c|c3:|]

